src/assets/icons/thumbtack.svg

<svg width="14" height="14" viewBox="0 0 14 14" fill="none" xmlns="http://www.w3.org/2000/svg">
<g id="thumbtack">
<g clip-path="url(#clip0_295_4725)">
<path id="Vector" fill-rule="evenodd" clip-rule="evenodd" d="M2.39999 0.6C2.39999 0.268629 2.66862 0 2.99999 0H11C11.3314 0 11.6 0.268629 11.6 0.6C11.6 0.931371 11.3314 1.2 11 1.2H10.8V5.4C10.8 5.44198 10.8152 5.49845 10.8813 5.57117C10.951 5.64793 11.0619 5.72265 11.1959 5.77305C12.271 6.17749 12.754 7.17494 12.9739 7.92676C13.0877 8.31587 13.1436 8.6793 13.1715 8.94371C13.1855 9.07678 13.1926 9.18697 13.1962 9.26556C13.198 9.3049 13.199 9.33648 13.1995 9.35922L13.1999 9.3866L13.2 9.39509L13.2 9.398L13.2 9.39912C13.2 9.39933 13.2 9.4 12.6 9.4H13.2C13.2 9.73137 12.9314 10 12.6 10H7.59999V13.4C7.59999 13.7314 7.33136 14 6.99999 14C6.66862 14 6.39999 13.7314 6.39999 13.4V10H1.39999C1.06862 10 0.799988 9.73137 0.799988 9.4H1.39999C0.799988 9.4 0.799988 9.40021 0.799988 9.4L0.799988 9.39912L0.799991 9.398L0.800002 9.39509L0.800071 9.3866L0.800524 9.35922C0.801018 9.33648 0.801965 9.3049 0.80378 9.26556C0.807406 9.18697 0.814522 9.07678 0.828522 8.94371C0.856341 8.6793 0.912232 8.31587 1.02604 7.92676C1.24593 7.17494 1.729 6.17749 2.80412 5.77305C2.93811 5.72265 3.04895 5.64793 3.1187 5.57117C3.18477 5.49845 3.19999 5.44198 3.19999 5.4V1.2H2.99999C2.66862 1.2 2.39999 0.931371 2.39999 0.6ZM4.39999 1.2V5.4C4.39999 6.2076 3.74266 6.70209 3.22663 6.89621C2.68636 7.09945 2.36174 7.63469 2.17779 8.26363C2.12262 8.45226 2.08432 8.63606 2.05783 8.8H11.9421C11.9157 8.63606 11.8774 8.45226 11.8222 8.26363C11.6382 7.63469 11.3136 7.09945 10.7733 6.89621C10.2573 6.70209 9.59999 6.2076 9.59999 5.4V1.2H4.39999Z" fill="black"/>
</g>
</g>
<defs>
<clipPath id="clip0_295_4725">
<rect width="14" height="14" fill="white"/>
</clipPath>
</defs>
</svg>

<svg xmlns="http://www.w3.org/2000/svg" fill="none" viewBox="0 0 14 14"><g clip-path="url(#a)"><path fill="#000" fill-rule="evenodd" d="M2.4.6A.6.6 0 0 1 3 0h8a.6.6 0 1 1 0 1.2h-.2v4.2c0 .042.015.098.081.171.07.077.18.152.315.202 1.075.404 1.558 1.402 1.778 2.154a5.9 5.9 0 0 1 .226 1.432v.04l-.6.001h.6a.6.6 0 0 1-.6.6h-5v3.4a.6.6 0 1 1-1.2 0V10h-5a.6.6 0 0 1-.6-.6h.6-.6v-.041l.004-.093a5.852 5.852 0 0 1 .222-1.339c.22-.752.703-1.75 1.778-2.154a.8.8 0 0 0 .315-.202c.066-.073.081-.129.081-.171V1.2H3a.6.6 0 0 1-.6-.6m2 .6v4.2c0 .808-.657 1.302-1.173 1.496-.54.203-.865.739-1.05 1.368a5 5 0 0 0-.12.536h9.885a4 4 0 0 0-.12-.536c-.184-.63-.508-1.165-1.049-1.368C10.257 6.702 9.6 6.208 9.6 5.4V1.2z" clip-rule="evenodd"/></g><defs><clipPath id="a"><path fill="#fff" d="M0 0h14v14H0z"/></clipPath></defs></svg>
